cmsbackend/appfiles/web/assets/img/self-sustenance icon.svg

<?xml version="1.0" encoding="UTF-8"?>
<svg width="105px" height="76px" viewBox="0 0 105 76" version="1.1" xmlns="http://www.w3.org/2000/svg" xmlns:xlink="http://www.w3.org/1999/xlink">
    <!-- Generator: Sketch 50 (54983) - http://www.bohemiancoding.com/sketch -->
    <title>self-sustenance icon</title>
    <desc>Created with Sketch.</desc>
    <defs></defs>
    <g id="Page-1" stroke="none" stroke-width="1" fill="none" fill-rule="evenodd">
        <g id="About" transform="translate(-1068.000000, -1351.000000)" fill="#DB1750" fill-rule="nonzero">
            <g id="self-sustenance-icon" transform="translate(1068.000000, 1351.000000)">
                <polygon id="Shape" points="34.7557394 24.3500637 34.755 24.3493258 34.7535211 24.3500637"></polygon>
                <path d="M105,59.766527 L105,57.909015 L95.0373985,57.909015 L95.0373985,22.0858421 L99.2027386,24.5912492 L100.195859,20.7176025 L66.9762953,0.737858358 L33.7583333,20.7176025 L34.7520946,24.5909301 L38.9174346,22.0855229 L38.9174346,57.909015 L26.6197183,57.909015 L26.6197183,59.766527 L105,59.766527 Z M41.353143,20.6202587 L66.9762953,5.2083345 L92.6013698,20.6205779 L92.6013698,57.909015 L41.353143,57.909015 L41.353143,20.6202587 Z" id="Shape"></path>
                <path d="M7.30016871,71.3482333 C7.30016871,73.5101657 9.06043671,75.2615526 11.2304908,75.2615526 C13.4011807,75.2615526 15.1614487,73.5101657 15.1614487,71.3482333 L15.1614487,42.7740072 L16.6349618,42.7740072 L16.6349618,71.3482333 C16.6349618,73.5101657 18.3952298,75.2615526 20.5652839,75.2615526 C22.7359738,75.2615526 24.4962418,73.5101657 24.4962418,71.3482333 L24.4962418,23.8816299 C24.6850803,24.2665362 24.8748726,24.7077856 25.0618038,25.2224711 C25.9589459,27.6955572 26.7120749,31.7528998 26.7092137,38.0864439 C26.7092137,39.8315 26.6526257,41.7487511 26.5299124,43.8543403 C26.4478916,45.2502586 27.5182948,46.4483427 28.920914,46.5300087 C28.9705079,46.5328575 29.0207377,46.5344402 29.0706496,46.5344402 C30.4074614,46.5344402 31.529366,45.4955731 31.6082077,44.1493507 C31.7360076,41.9544987 31.7957746,39.9400715 31.7957746,38.0867604 C31.7833762,28.5327917 30.2510497,23.2447619 28.1604731,20.0661199 C27.1167744,18.4872445 25.8947281,17.4749663 24.7658295,16.9143832 C23.6849353,16.3715261 22.7353379,16.2474445 22.1611924,16.2392146 C22.1208178,16.2373154 22.0804432,16.2328839 22.0394328,16.2328839 L9.75697765,16.2328839 C9.71278815,16.2328839 9.6701882,16.2373154 9.62663453,16.2398476 C9.05121732,16.2483941 8.10543489,16.3740584 7.02930934,16.9143832 C5.31927112,17.7582649 3.47634651,19.6052452 2.18563166,22.8782147 C0.881246686,26.1632125 0.00381492072,30.9137662 0,38.0861274 C0,39.9391219 0.0597670913,41.9554483 0.188838576,44.1499838 C0.268316091,45.4955731 1.38894905,46.5341236 2.72576085,46.5344402 C2.77599064,46.5344402 2.82622043,46.5328575 2.87676813,46.5296922 C4.2787515,46.4473931 5.34915467,45.249309 5.26681596,43.8533907 C5.14251313,41.7484346 5.08656096,39.830867 5.08656096,38.0861274 C5.07543411,30.4202885 6.19797453,26.1141496 7.30016871,23.8667528 L7.30016871,71.3482333 Z" id="Shape"></path>
                <path d="M17.0436854,13.9249121 C20.3783638,13.3787822 22.9225352,10.4914276 22.9225352,7.0096544 C22.9225352,3.13783285 19.7779906,0 15.8978873,0 C12.0184085,0 8.87323944,3.13783285 8.87323944,7.0096544 C8.87323944,10.4914276 11.417723,13.3787822 14.7520892,13.9249121 C15.1251761,13.985974 15.5076291,14.0193088 15.8978873,14.0193088 C16.2881455,14.0193088 16.6705986,13.985974 17.0436854,13.9249121 Z" id="Shape"></path>
                <path d="M73.9439537,53.7308447 C73.9439537,54.6192191 74.6057047,55.3393769 75.4226811,55.3393769 C76.2393658,55.3393769 76.9014085,54.6189017 76.9014085,53.7308447 L76.9014085,46.2547247 C76.0021508,46.2010858 74.8770576,46.0182692 73.943662,45.7472182 L73.943662,53.7308447 L73.9439537,53.7308447 Z" id="Shape"></path>
                <path d="M77.6411368,53.7308447 C77.6411368,54.6192191 78.3034713,55.3393769 79.1198642,55.3393769 C79.9362571,55.3393769 80.5985915,54.6189017 80.5985915,53.7308447 L80.5985915,45.7472182 C79.6654877,46.0185866 78.5401027,46.2014032 77.6408451,46.2550421 L77.6408451,53.7308447 L77.6411368,53.7308447 Z" id="Shape"></path>
                <ellipse id="Oval" cx="78.0105634" cy="23.9803966" rx="4.06690141" ry="4.05822097"></ellipse>
                <path d="M86.5059277,39.9495633 C85.956545,35.3063506 84.6181655,32.6127503 83.2849114,31.0562696 C82.5016807,30.1366994 81.7293415,29.6386502 81.1818809,29.3748138 C80.806763,29.1584988 79.8361335,28.776476 77.6408452,28.776476 C75.4487602,28.776476 74.4778104,29.1572645 74.1014112,29.3741967 C73.5536302,29.6377245 72.7806504,30.1357736 71.9961383,31.0562696 C70.6641656,32.6127503 69.3251454,35.3063506 68.7757627,39.9498719 C68.6975998,40.6096173 69.189962,41.2057951 69.8751687,41.2813973 C69.9232197,41.2866432 69.9709503,41.2888032 70.0183606,41.2888032 C70.6439842,41.2891118 71.1847177,40.8361155 71.2577551,40.22204 C71.6078865,37.2741693 72.2799593,35.3109793 72.9728542,34.0087691 C72.4241122,36.957257 71.8334057,40.7404555 71.8334057,43.3720311 C71.8334057,43.3908545 71.8375701,43.4090607 71.8404532,43.4278841 C71.9884501,44.3289396 75.6826082,45.0093599 77.6405248,45.0093599 C79.5984414,45.0093599 83.2932402,44.3289396 83.4412372,43.4278841 C83.4444406,43.4090607 83.4482847,43.3908545 83.4482847,43.3720311 C83.4482847,40.7419984 82.8582188,36.9612685 82.3094768,34.0133978 C83.0014107,35.3152995 83.6741242,37.2778722 84.0232945,40.2217314 C84.0960117,40.8354983 84.6364248,41.2888032 85.2633297,41.2891118 C85.31074,41.2891118 85.35783,41.2863346 85.4058809,41.2817059 C86.0917284,41.2061036 86.5840906,40.6096173 86.5059277,39.9495633 Z" id="Shape"></path>
                <ellipse id="Oval" cx="58.415493" cy="22.8736091" rx="4.43661972" ry="4.42715015"></ellipse>
                <path d="M53.9788732,40.5822097 L53.9788732,42.1066676 L53.9788732,53.3793596 C53.9788732,54.461973 54.88694,55.3393769 56.0069865,55.3393769 C57.127033,55.3393769 58.0350998,54.461973 58.0350998,53.3793596 L58.0350998,45.0905323 L58.7958861,45.0905323 L58.7958861,53.3793596 C58.7958861,54.461973 59.7039529,55.3393769 60.8233492,55.3393769 C61.9433957,55.3393769 62.8521127,54.461973 62.8521127,53.3793596 L62.8521127,42.1066676 L62.8521127,40.5822097 L53.9788732,40.5822097 Z" id="Shape"></path>
                <path d="M62.0848143,28.1525949 C62.0396221,28.1375721 61.9944298,28.1320202 61.9489194,28.1218961 C61.8139792,28.0706227 61.670128,28.0386176 61.5176838,28.0386176 L55.3136204,28.0386176 C55.1583119,28.0386176 55.0106416,28.0712759 54.8734737,28.1251619 C54.8311457,28.1349594 54.7888178,28.1395316 54.7474447,28.1539012 L54.7468082,28.1529214 C54.4651525,28.2371797 53.2545103,28.8002076 52.2230458,30.6894864 C51.1848979,32.5771323 50.2829632,35.7168949 50.2816901,41.0731718 C50.2816901,41.4258807 50.2848727,41.7896935 50.2941021,42.1668961 C50.3128791,42.9284861 50.9201097,43.5336431 51.6590979,43.5336431 C51.6696003,43.5336431 51.6807392,43.5336431 51.6925147,43.53299 C52.4458243,43.5137216 53.0412795,42.8716607 53.0234572,42.0979872 C53.0148643,41.7478909 53.0110452,41.4066124 53.0110452,41.0731718 C53.0100905,37.2270116 53.5119787,34.7724188 54.072744,33.2427071 L54.072744,37.4608446 L54.072744,39.8559995 L62.7588784,39.8559995 L62.7588784,37.4608446 L62.7588784,33.2446666 C63.3190073,34.773072 63.8202589,37.2309306 63.8186677,41.0728452 C63.8186677,41.4053061 63.8154851,41.7472378 63.8081652,42.1005999 C63.7912977,42.8739468 64.3892989,43.5153545 65.1426086,43.5323368 C65.1524745,43.5323368 65.1626586,43.5326634 65.173161,43.5326634 C65.9134222,43.53299 66.5212893,42.9255468 66.5368838,42.1623239 C66.5454767,41.7896935 66.5492958,41.4265339 66.5492958,41.0728452 C66.5473862,35.7168949 65.6467245,32.5764792 64.6079401,30.6891599 C63.5787034,28.8002076 62.36647,28.2371797 62.0848143,28.1525949 Z" id="Shape"></path>
            </g>
        </g>
    </g>
</svg>

<svg width="105" height="76" xmlns="http://www.w3.org/2000/svg"><g fill="#DB1750"><path d="M34.756 24.35h-.002z"/><path d="M105 59.767v-1.858h-9.963V22.086l4.166 2.505.993-3.873L66.976.738l-33.218 19.98.994 3.873 4.165-2.505v35.823H26.62v1.858H105zM41.353 20.62L66.976 5.208l25.625 15.413v37.288H41.353V20.62z"/><path d="M7.3 71.348a3.922 3.922 0 0 0 3.93 3.914 3.922 3.922 0 0 0 3.931-3.914V42.774h1.474v28.574a3.922 3.922 0 0 0 3.93 3.914 3.922 3.922 0 0 0 3.931-3.914V23.882c.19.385.379.826.566 1.34.897 2.474 1.65 6.53 1.647 12.864a98.29 98.29 0 0 1-.18 5.768 2.536 2.536 0 0 0 2.542 2.68 2.54 2.54 0 0 0 2.537-2.385c.128-2.195.188-4.209.188-6.062-.013-9.554-1.545-14.842-3.636-18.02-1.043-1.58-2.265-2.592-3.394-3.153-1.081-.542-2.03-.667-2.605-.675-.04-.002-.08-.006-.122-.006H9.757c-.044 0-.087.004-.13.007-.576.008-1.522.134-2.598.674-1.71.844-3.553 2.691-4.843 5.964C.88 26.163.004 30.914 0 38.086c0 1.853.06 3.87.189 6.064a2.54 2.54 0 0 0 2.688 2.38 2.537 2.537 0 0 0 2.39-2.677 98.023 98.023 0 0 1-.18-5.767C5.075 30.42 6.198 26.114 7.3 23.866v47.482zm9.744-57.423c3.334-.546 5.879-3.434 5.879-6.915 0-3.872-3.145-7.01-7.025-7.01-3.88 0-7.025 3.138-7.025 7.01 0 3.481 2.545 6.369 5.88 6.915a7.087 7.087 0 0 0 2.29 0zm56.9 39.806c0 .888.662 1.608 1.479 1.608.816 0 1.478-.72 1.478-1.608v-7.476a14.453 14.453 0 0 1-2.957-.508v7.984zm3.697 0c0 .888.662 1.608 1.479 1.608.816 0 1.479-.72 1.479-1.608v-7.984c-.934.272-2.059.454-2.958.508v7.476z"/><ellipse cx="78.011" cy="23.98" rx="4.067" ry="4.058"/><path d="M86.506 39.95c-.55-4.644-1.888-7.337-3.221-8.894-.783-.92-1.556-1.417-2.103-1.681-.375-.217-1.346-.599-3.541-.599-2.192 0-3.163.381-3.54.598-.547.264-1.32.762-2.105 1.682-1.332 1.557-2.67 4.25-3.22 8.894-.078.66.414 1.256 1.1 1.331.047.006.095.008.142.008.626 0 1.167-.453 1.24-1.067.35-2.948 1.022-4.911 1.715-6.213-.549 2.948-1.14 6.731-1.14 9.363 0 .019.005.037.007.056.148.9 3.843 1.581 5.8 1.581 1.958 0 5.653-.68 5.801-1.581.003-.019.007-.037.007-.056 0-2.63-.59-6.41-1.139-9.359.692 1.302 1.365 3.265 1.714 6.209.073.613.613 1.067 1.24 1.067.048 0 .095-.003.143-.007.686-.076 1.178-.672 1.1-1.332z"/><ellipse cx="58.415" cy="22.874" rx="4.437" ry="4.427"/><path d="M53.979 40.582V53.38c0 1.083.908 1.96 2.028 1.96s2.028-.877 2.028-1.96v-8.288h.76v8.288c0 1.083.909 1.96 2.028 1.96 1.12 0 2.03-.877 2.03-1.96V40.582h-8.874z"/><path d="M62.085 28.153c-.045-.015-.09-.021-.136-.031a1.208 1.208 0 0 0-.431-.083h-6.204a1.2 1.2 0 0 0-.44.086c-.043.01-.085.015-.127.029v-.001c-.282.084-1.492.647-2.524 2.536-1.038 1.888-1.94 5.028-1.941 10.384 0 .353.003.717.012 1.094.019.761.626 1.367 1.365 1.367l.034-.001c.753-.02 1.348-.661 1.33-1.435a44.83 44.83 0 0 1-.012-1.025c0-3.846.501-6.3 1.062-7.83v6.613h8.686v-6.611c.56 1.528 1.061 3.986 1.06 7.828 0 .332-.004.674-.01 1.028-.018.773.58 1.414 1.334 1.431h.03c.74.001 1.348-.606 1.364-1.37.008-.372.012-.735.012-1.09-.002-5.355-.902-8.496-1.941-10.383-1.03-1.889-2.242-2.452-2.523-2.536z"/></g></svg>
